X: 1
T: Kenmure's Up And Awa'
M: 6/8
L: 1/8
R: jig
K: G Major
D|GBd gdB|ded dBA|GBd gdB|ABA cBA|
GBd gdB|def gfe|dcB AGF|GAG G2:|
d|g2d edB|ded def|g2d edB|ABA ABd|
g2d edB|def gfe|dcB AGF|GAG G2:||

